src/topics/icons/deviantart.svg

<svg height="130" preserveAspectRatio="xMidYMid" viewBox="0 0 512 130" width="512" xmlns="http://www.w3.org/2000/svg"><path d="m80.1343054 23.6661281v-23.42336948h-23.424l-2.3374187 2.35759606-11.0527685 21.06325122-3.4755468 2.3449852h-39.44796056v32.1670936h21.68685716l1.9313497 2.3361577-23.61820686 45.1316646v23.424h23.42336946l2.3380493-2.356965 11.053399-21.063882 3.4749162-2.344355h39.4479606v-32.1677237h-21.6868571l-1.9294582-2.3519212z" fill="#45ad47"/><path d="m125.899665 106.71669 6.654739-12.7016358 3.070108 12.7016358zm.648197-35.5783255-30.313931 57.9291425h17.988729l4.39866-8.429714 20.311646-.001261 2.009536 8.430975h17.987468l-13.863724-57.9291425zm60.672 27.0817734h-7.685675v-11.7129458h7.685675c4.683035 0 6.461793 2.3430936 6.461793 5.903133 0 3.4686109-1.778758 5.8098128-6.461793 5.8098128zm24.080394-6.0954482c0-13.3025419-8.997202-20.9863252-21.645872-20.9863252h-27.449379v57.9348175h17.329182v-16.897261h4.216434l3.442128-.009458 8.38999 16.906719h17.98936l-10.697774-20.442167c5.246739-3.342503 8.425931-9.0079214 8.425931-16.5063253zm2.563153-20.9863252v15.3574779h16.373911v42.5773396h9.866719l7.449222-14.250877v-28.3264626h14.851153l8.029951-15.3574779zm97.08264-70.89560588h17.312788v57.92662068h-17.312788zm-147.260532.02900493-7.779625 14.85178325h4.776985c8.528709 0 13.92867 5.4510345 13.92867 14.0749557 0 8.523665-5.399961 13.9765911-13.92867 13.9765911h-5.3987v-26.864867l-16.747822 31.9728867v9.8774384h23.301675c18.776275 0 29.81265-11.3213793 29.81265-28.9626798 0-17.0574187-10.316296-28.20161574-27.965163-28.92610835zm32.544158 57.89761575h44.216749v-15.3549557h-26.904591v-6.2600197h24.736157v-14.697931h-24.736157v-6.2581281h26.904591v-15.35558618h-44.216749zm74.999803-22.8722759-8.391882-35.05434478h-17.970443l13.871921 57.92472908h18.486226l30.341675-57.92472908h-17.99062zm183.833222-35.05875857v15.35747787h16.373911v42.5773399h9.866719l7.449852-14.2508769v-28.326463h14.851153l8.02932-15.35747787zm-93.768513 35.58336947 6.64402-12.6902857 3.069478 12.6902857zm.674049-35.57895568-30.322128 57.92472908h17.958463l4.414424-8.439803 20.292099-.0006305 2.014581 8.4404335 17.963507.0018916-13.864354-57.92662068zm72.074089 27.43929068-19.390424-27.43929068h-17.074443v57.92662068h17.307744v-29.4185616l21.466798 29.4185616h14.99933v-57.92662068h-17.309005z" fill="#1f211f"/></svg>

<?xml version="1.0" encoding="UTF-8" standalone="no"?>
<svg width="512px" height="130px" viewBox="0 0 512 130" version="1.1" xmlns="http://www.w3.org/2000/svg" xmlns:xlink="http://www.w3.org/1999/xlink" preserveAspectRatio="xMidYMid">
	<g>
		<path d="M80.1343054,23.6661281 L80.1343054,0.242758621 L56.7103054,0.242758621 L54.3728867,2.60035468 L43.3201182,23.6636059 L39.8445714,26.0085911 L0.396610837,26.0085911 L0.396610837,58.1756847 L22.083468,58.1756847 L24.0148177,60.5118424 L0.396610837,105.643507 L0.396610837,129.067507 L23.8199803,129.067507 L26.1580296,126.710542 L37.2114286,105.64666 L40.6863448,103.302305 L80.1343054,103.302305 L80.1343054,71.1345813 L58.4474483,71.1345813 L56.5179901,68.7826601 L80.1343054,23.6661281" fill="#45AD47"></path>
		<path d="M125.899665,106.71669 L132.554404,94.0150542 L135.624512,106.71669 L125.899665,106.71669 L125.899665,106.71669 Z M126.547862,71.1383645 L96.233931,129.067507 L114.22266,129.067507 L118.62132,120.637793 L138.932966,120.636532 L140.942502,129.067507 L158.92997,129.067507 L145.066246,71.1383645 L126.547862,71.1383645 Z M187.219862,98.2201379 L179.534187,98.2201379 L179.534187,86.5071921 L187.219862,86.5071921 C191.902897,86.5071921 193.681655,88.8502857 193.681655,92.4103251 C193.681655,95.878936 191.902897,98.2201379 187.219862,98.2201379 Z M211.300256,92.1246897 C211.300256,78.8221478 202.303054,71.1383645 189.654384,71.1383645 L162.205005,71.1383645 L162.205005,129.073182 L179.534187,129.073182 L179.534187,112.175921 L183.750621,112.175921 L187.192749,112.166463 L195.582739,129.073182 L213.572099,129.073182 L202.874325,108.631015 C208.121064,105.288512 211.300256,99.6230936 211.300256,92.1246897 Z M213.863409,71.1383645 L213.863409,86.4958424 L230.23732,86.4958424 L230.23732,129.073182 L240.104039,129.073182 L247.553261,114.822305 L247.553261,86.4958424 L262.404414,86.4958424 L270.434365,71.1383645 L213.863409,71.1383645 Z M310.946049,0.242758621 L328.258837,0.242758621 L328.258837,58.1693793 L310.946049,58.1693793 L310.946049,0.242758621 Z M163.685517,0.271763547 L155.905892,15.1235468 L160.682877,15.1235468 C169.211586,15.1235468 174.611547,20.5745813 174.611547,29.1985025 C174.611547,37.7221675 169.211586,43.1750936 160.682877,43.1750936 L155.284177,43.1750936 L155.284177,16.3102266 L138.536355,48.2831133 L138.536355,58.1605517 L161.83803,58.1605517 C180.614305,58.1605517 191.65068,46.8391724 191.65068,29.1978719 C191.65068,12.1404532 181.334384,0.996256158 163.685517,0.271763547 Z M196.229675,58.1693793 L240.446424,58.1693793 L240.446424,42.8144236 L213.541833,42.8144236 L213.541833,36.5544039 L238.27799,36.5544039 L238.27799,21.8564729 L213.541833,21.8564729 L213.541833,15.5983448 L240.446424,15.5983448 L240.446424,0.242758621 L196.229675,0.242758621 L196.229675,58.1693793 Z M271.229478,35.2971034 L262.837596,0.242758621 L244.867153,0.242758621 L258.739074,58.1674877 L277.2253,58.1674877 L307.566975,0.242758621 L289.576355,0.242758621 L271.229478,35.2971034 Z M455.0627,0.238344828 L455.0627,15.5958227 L471.436611,15.5958227 L471.436611,58.1731626 L481.30333,58.1731626 L488.753182,43.9222857 L488.753182,15.5958227 L503.604335,15.5958227 L511.633655,0.238344828 L455.0627,0.238344828 Z M361.294187,35.8217143 L367.938207,23.1314286 L371.007685,35.8217143 L361.294187,35.8217143 Z M361.968236,0.242758621 L331.646108,58.1674877 L349.604571,58.1674877 L354.018995,49.7276847 L374.311094,49.7270542 L376.325675,58.1674877 L394.289182,58.1693793 L380.424828,0.242758621 L361.968236,0.242758621 Z M434.042325,27.6820493 L414.651901,0.242758621 L397.577458,0.242758621 L397.577458,58.1693793 L414.885202,58.1693793 L414.885202,28.7508177 L436.352,58.1693793 L451.35133,58.1693793 L451.35133,0.242758621 L434.042325,0.242758621 L434.042325,27.6820493 Z" fill="#1F211F"></path>
	</g>
</svg>
